images/collx-logo.svg

<svg fill="none" height="120" viewBox="0 0 431 120" width="431" xmlns="http://www.w3.org/2000/svg"><g fill="#222428"><path d="m187.339 102.121c-8.374 0-15.568-1.663-21.582-4.9909-5.938-3.4032-10.505-8.1676-13.703-14.2932-3.197-6.2013-4.796-13.4991-4.796-21.8935s1.599-15.6544 4.796-21.7801c3.198-6.1256 7.765-10.8522 13.703-14.1797 6.014-3.4031 13.208-5.1047 21.582-5.1047 4.187 0 8.298.5294 12.332 1.5881 4.035 1.0588 7.575 2.5713 10.62 4.5376 1.979 1.2856 3.159 2.8359 3.54 4.6509.38 1.7394.152 3.3653-.685 4.8778-.838 1.4369-2.094 2.42-3.769 2.9494-1.674.4538-3.54 0-5.595-1.3612-2.36-1.5125-4.91-2.6091-7.651-3.2897-2.74-.6807-5.519-1.021-8.335-1.021-8.146 0-14.35 2.4578-18.613 7.3735-4.263 4.84-6.395 11.7597-6.395 20.7591s2.132 15.9569 6.395 20.8726c4.263 4.9156 10.467 7.3734 18.613 7.3734 2.892 0 5.747-.3403 8.564-1.0209 2.816-.7563 5.481-1.8906 7.993-3.4031 2.055-1.2857 3.882-1.7016 5.481-1.2479 1.599.4538 2.779 1.3991 3.54 2.836.837 1.3612 1.104 2.8737.799 4.5375-.304 1.6637-1.332 3.1384-3.083 4.4241-3.045 2.1931-6.699 3.8947-10.962 5.1049-4.187 1.134-8.45 1.701-12.789 1.701z"/><path d="m248.954 102.121c-5.785 0-10.81-1.172-15.073-3.5162-4.263-2.3444-7.574-5.6719-9.934-9.9826-2.36-4.3862-3.54-9.5287-3.54-15.4275s1.18-11.0035 3.54-15.3141c2.36-4.3107 5.671-7.6382 9.934-9.9825 4.263-2.3444 9.288-3.5166 15.073-3.5166 5.786 0 10.81 1.1722 15.073 3.5166 4.263 2.3443 7.575 5.6718 9.935 9.9825 2.36 4.3106 3.54 9.4153 3.54 15.3141s-1.18 11.0413-3.54 15.4275c-2.36 4.3107-5.672 7.6382-9.935 9.9826-4.263 2.3442-9.287 3.5162-15.073 3.5162zm0-10.7763c4.263 0 7.689-1.5125 10.277-4.5375 2.589-3.1006 3.883-7.6381 3.883-13.6125 0-6.05-1.294-10.5497-3.883-13.4991-2.588-3.025-6.014-4.5375-10.277-4.5375s-7.688 1.5125-10.277 4.5375c-2.588 2.9494-3.882 7.4491-3.882 13.4991 0 5.9744 1.294 10.5119 3.882 13.6125 2.589 3.025 6.014 4.5375 10.277 4.5375z"/><path d="m309.729 102.121c-12.713 0-19.069-7.0706-19.069-21.2125v-53.6561c0-4.7644 2.36-7.1466 7.08-7.1466 4.795 0 7.193 2.3822 7.193 7.1466v52.9754c0 6.8063 2.855 10.2094 8.565 10.2094h1.713c.532-.0756 1.065-.1512 1.598-.2268 1.066-.1513 1.789.1512 2.17.9075.38.6806.571 2.1175.571 4.3106 0 1.8906-.381 3.3653-1.142 4.4241-.761 1.0584-2.018 1.7014-3.768 1.9284-1.599.227-3.236.34-4.911.34z"/><path d="m347.571 102.121c-12.713 0-19.069-7.0706-19.069-21.2125v-53.6561c0-4.7644 2.359-7.1466 7.079-7.1466 4.796 0 7.194 2.3822 7.194 7.1466v52.9754c0 6.8063 2.855 10.2094 8.564 10.2094h1.713c.533-.0756 1.066-.1512 1.599-.2268 1.066-.1513 1.789.1512 2.17.9075.38.6806.571 2.1175.571 4.3106 0 1.8906-.381 3.3653-1.142 4.4241-.762 1.0584-2.018 1.7014-3.769 1.9284-1.598.227-3.235.34-4.91.34z"/><path d="m370.454 101.894c-1.903 0-3.464-.491-4.682-1.474-1.218-1.059-1.941-2.3446-2.169-3.8571-.152-1.5881.38-3.1763 1.598-4.7644l23.752-31.5357-22.495-29.9476c-1.218-1.6638-1.751-3.2519-1.599-4.7644.152-1.5881.837-2.8738 2.055-3.8569 1.218-1.0587 2.741-1.5881 4.568-1.5881 2.817 0 5.367 1.5503 7.651 4.6509l18.156 24.9564 18.156-24.9564c2.284-3.1006 4.872-4.6509 7.765-4.6509 1.903 0 3.463.4915 4.681 1.4747 1.219.9831 1.904 2.2687 2.056 3.8569.152 1.5125-.419 3.1384-1.713 4.8778l-22.495 29.9476 23.637 31.5357c1.218 1.5881 1.751 3.1763 1.599 4.7644-.153 1.5125-.838 2.7981-2.056 3.8571-1.218.983-2.816 1.474-4.796 1.474-2.74 0-5.291-1.588-7.65-4.7639l-19.184-26.0907-19.07 26.0907c-2.36 3.1759-4.948 4.7639-7.765 4.7639z"/></g><path d="m14.2829 29.8927-10.17643-1.4673c-2.1659-.3123-4.10647 1.36-4.10647 3.5388v56.3528c0 2.3311 2.20438 4.0389 4.47407 3.4662l10.17643-2.5678c1.5933-.4021 2.7092-1.8297 2.7092-3.4662v-52.3177c0-1.7768-1.3105-3.2841-3.0768-3.5388z" fill="#0086ff"/><path d="m36.1329 12.7567 18.8562 4.9844c1.5741.4161 2.67 1.8346 2.67 3.4561v76.2531c0 1.424-.8486 2.7117-2.1604 3.2797l-18.8563 8.156c-2.372 1.026-5.0229-.704-5.0229-3.279v-89.3943c0-2.3478 2.2341-4.0585 4.5134-3.456z" fill="#0086ff"/><path d="m77.829 1.24942 24.436 13.05718c1.166.6229 1.893 1.8334 1.893 3.1506v78.1624c0 1.06-.472 2.0655-1.289 2.7449l-24.4366 20.3115c-2.3388 1.943-5.8936.288-5.8936-2.745v-111.53094c0-2.70355 2.8975-4.4291673 5.2902-3.15064z" fill="#0086ff"/></svg>

<svg width="431" height="120" viewBox="0 0 431 120" fill="none" xmlns="http://www.w3.org/2000/svg"><path d="M187.339 102.121C178.965 102.121 171.771 100.458 165.757 97.1301C159.819 93.7269 155.252 88.9625 152.054 82.8369C148.857 76.6356 147.258 69.3378 147.258 60.9434C147.258 52.549 148.857 45.289 152.054 39.1633C155.252 33.0377 159.819 28.3111 165.757 24.9836C171.771 21.5805 178.965 19.8789 187.339 19.8789C191.526 19.8789 195.637 20.4083 199.671 21.467C203.706 22.5258 207.246 24.0383 210.291 26.0046C212.27 27.2902 213.45 28.8405 213.831 30.6555C214.211 32.3949 213.983 34.0208 213.146 35.5333C212.308 36.9702 211.052 37.9533 209.377 38.4827C207.703 38.9365 205.837 38.4827 203.782 37.1215C201.422 35.609 198.872 34.5124 196.131 33.8318C193.391 33.1511 190.612 32.8108 187.796 32.8108C179.65 32.8108 173.446 35.2686 169.183 40.1843C164.92 45.0243 162.788 51.944 162.788 60.9434C162.788 69.9428 164.92 76.9003 169.183 81.816C173.446 86.7316 179.65 89.1894 187.796 89.1894C190.688 89.1894 193.543 88.8491 196.36 88.1685C199.176 87.4122 201.841 86.2779 204.353 84.7654C206.408 83.4797 208.235 83.0638 209.834 83.5175C211.433 83.9713 212.613 84.9166 213.374 86.3535C214.211 87.7147 214.478 89.2272 214.173 90.891C213.869 92.5547 212.841 94.0294 211.09 95.3151C208.045 97.5082 204.391 99.2098 200.128 100.42C195.941 101.554 191.678 102.121 187.339 102.121Z" fill="#222428"/><path d="M248.954 102.121C243.169 102.121 238.144 100.949 233.881 98.6048C229.618 96.2604 226.307 92.9329 223.947 88.6222C221.587 84.236 220.407 79.0935 220.407 73.1947C220.407 67.2959 221.587 62.1912 223.947 57.8806C226.307 53.5699 229.618 50.2424 233.881 47.8981C238.144 45.5537 243.169 44.3815 248.954 44.3815C254.74 44.3815 259.764 45.5537 264.027 47.8981C268.29 50.2424 271.602 53.5699 273.962 57.8806C276.322 62.1912 277.502 67.2959 277.502 73.1947C277.502 79.0935 276.322 84.236 273.962 88.6222C271.602 92.9329 268.29 96.2604 264.027 98.6048C259.764 100.949 254.74 102.121 248.954 102.121ZM248.954 91.3447C253.217 91.3447 256.643 89.8322 259.231 86.8072C261.82 83.7066 263.114 79.1691 263.114 73.1947C263.114 67.1447 261.82 62.645 259.231 59.6956C256.643 56.6706 253.217 55.1581 248.954 55.1581C244.691 55.1581 241.266 56.6706 238.677 59.6956C236.089 62.645 234.795 67.1447 234.795 73.1947C234.795 79.1691 236.089 83.7066 238.677 86.8072C241.266 89.8322 244.691 91.3447 248.954 91.3447Z" fill="#222428"/><path d="M309.729 102.121C297.016 102.121 290.66 95.0504 290.66 80.9085V27.2524C290.66 22.488 293.02 20.1058 297.74 20.1058C302.535 20.1058 304.933 22.488 304.933 27.2524V80.2278C304.933 87.0341 307.788 90.4372 313.498 90.4372C314.107 90.4372 314.678 90.4372 315.211 90.4372C315.743 90.3616 316.276 90.286 316.809 90.2104C317.875 90.0591 318.598 90.3616 318.979 91.1179C319.359 91.7985 319.55 93.2354 319.55 95.4285C319.55 97.3191 319.169 98.7938 318.408 99.8526C317.647 100.911 316.39 101.554 314.64 101.781C313.041 102.008 311.404 102.121 309.729 102.121Z" fill="#222428"/><path d="M347.571 102.121C334.858 102.121 328.502 95.0504 328.502 80.9085V27.2524C328.502 22.488 330.861 20.1058 335.581 20.1058C340.377 20.1058 342.775 22.488 342.775 27.2524V80.2278C342.775 87.0341 345.63 90.4372 351.339 90.4372C351.948 90.4372 352.519 90.4372 353.052 90.4372C353.585 90.3616 354.118 90.286 354.651 90.2104C355.717 90.0591 356.44 90.3616 356.821 91.1179C357.201 91.7985 357.392 93.2354 357.392 95.4285C357.392 97.3191 357.011 98.7938 356.25 99.8526C355.488 100.911 354.232 101.554 352.481 101.781C350.883 102.008 349.246 102.121 347.571 102.121Z" fill="#222428"/><path d="M370.454 101.894C368.551 101.894 366.99 101.403 365.772 100.42C364.554 99.361 363.831 98.0754 363.603 96.5629C363.451 94.9748 363.983 93.3866 365.201 91.7985L388.953 60.2628L366.458 30.3152C365.24 28.6514 364.707 27.0633 364.859 25.5508C365.011 23.9627 365.696 22.677 366.914 21.6939C368.132 20.6352 369.655 20.1058 371.482 20.1058C374.299 20.1058 376.849 21.6561 379.133 24.7567L397.289 49.7131L415.445 24.7567C417.729 21.6561 420.317 20.1058 423.21 20.1058C425.113 20.1058 426.673 20.5973 427.891 21.5805C429.11 22.5636 429.795 23.8492 429.947 25.4374C430.099 26.9499 429.528 28.5758 428.234 30.3152L405.739 60.2628L429.376 91.7985C430.594 93.3866 431.127 94.9748 430.975 96.5629C430.822 98.0754 430.137 99.361 428.919 100.42C427.701 101.403 426.103 101.894 424.123 101.894C421.383 101.894 418.832 100.306 416.473 97.1301L397.289 71.0394L378.219 97.1301C375.859 100.306 373.271 101.894 370.454 101.894Z" fill="#222428"/><path d="M14.2829 29.8927L4.10647 28.4254C1.94057 28.1131 0 29.7854 0 31.9642V88.317C0 90.6481 2.20438 92.3559 4.47407 91.7832L14.6505 89.2154C16.2438 88.8133 17.3597 87.3857 17.3597 85.7492V33.4315C17.3597 31.6547 16.0492 30.1474 14.2829 29.8927Z" fill="#0086FF"/><path d="M36.1329 12.7567L54.9891 17.7411C56.5632 18.1572 57.6591 19.5757 57.6591 21.1972V97.4503C57.6591 98.8743 56.8105 100.162 55.4987 100.73L36.6424 108.886C34.2704 109.912 31.6195 108.182 31.6195 105.607V16.2127C31.6195 13.8649 33.8536 12.1542 36.1329 12.7567Z" fill="#0086FF"/><path d="M77.829 1.24942L102.265 14.3066C103.431 14.9295 104.158 16.14 104.158 17.4572V95.6196C104.158 96.6796 103.686 97.6851 102.869 98.3645L78.4324 118.676C76.0936 120.619 72.5388 118.964 72.5388 115.931V4.40006C72.5388 1.69651 75.4363 -0.0291073 77.829 1.24942Z" fill="#0086FF"/></svg>
